X:363
T:Donald McLeod's reel
R:Reel
O:Scotland
S:Richard Robinson's web page/abc file
Z:Transcription, chords:Mike Long
M:C|
L:1/8
K:G
"Am"A2A2 GAAB| "G"e2de gede| "Am"a2ea gede| "Em"A2A2 BGGB|\
"Am"A2A2 GAAB| "G"e2de gede|
"Am"a2ea gedB| "Em"A2A2 GAAe:|\
|:"Am"a2ea gede|a2ea gee^f|"G"g2ea edBe|
"Em"A2A2 BGGB|"Am"A2A2 GAAB| "G(Em)"e2de gede|\
 "Am(G)"a2ea gedB| "Em(Am)"A2A2 GAAe:|
